src/containers/site/SiteAboutScreen/asset/about_icon.svg

<svg width="66" height="66" viewBox="0 0 66 66" fill="none" xmlns="http://www.w3.org/2000/svg">
<mask id="mask0" mask-type="alpha" maskUnits="userSpaceOnUse" x="8" y="7" width="50" height="51">
<path fill-rule="evenodd" clip-rule="evenodd" d="M8 32.9976C8 46.8047 19.1931 57.9976 33 57.9976C46.8074 57.9976 58 46.8047 58 32.9976C58 19.1902 46.8074 7.99756 33 7.99756C19.1931 7.99756 8 19.1902 8 32.9976Z" fill="white"/>
</mask>
<g mask="url(#mask0)">
<path fill-rule="evenodd" clip-rule="evenodd" d="M8 32.9976C8 46.8047 19.1931 57.9976 33 57.9976C46.8074 57.9976 58 46.8047 58 32.9976C58 19.1902 46.8074 7.99756 33 7.99756C19.1931 7.99756 8 19.1902 8 32.9976Z" fill="url(#paint0_linear)"/>
</g>
<mask id="mask1" mask-type="alpha" maskUnits="userSpaceOnUse" x="0" y="0" width="66" height="66">
<path fill-rule="evenodd" clip-rule="evenodd" d="M0 32.999C0 51.1544 14.7383 65.9328 32.8789 65.9975H33.1189C51.2598 65.9328 65.9978 51.1544 65.9978 32.999C65.9978 14.8033 51.1945 0 32.9988 0C14.8033 0 0 14.8033 0 32.999ZM3.95508 32.999C3.95508 16.984 16.9843 3.95532 32.9988 3.95532C49.0138 3.95532 62.0427 16.984 62.0427 32.999C62.0427 49.0135 49.0138 62.0427 32.9988 62.0427C16.9843 62.0427 3.95508 49.0135 3.95508 32.999Z" fill="white"/>
</mask>
<g mask="url(#mask1)">
<path fill-rule="evenodd" clip-rule="evenodd" d="M0 32.999C0 51.1544 14.7383 65.9328 32.8789 65.9975H33.1189C51.2598 65.9328 65.9978 51.1544 65.9978 32.999C65.9978 14.8033 51.1945 0 32.9988 0C14.8033 0 0 14.8033 0 32.999ZM3.95508 32.999C3.95508 16.984 16.9843 3.95532 32.9988 3.95532C49.0138 3.95532 62.0427 16.984 62.0427 32.999C62.0427 49.0135 49.0138 62.0427 32.9988 62.0427C16.9843 62.0427 3.95508 49.0135 3.95508 32.999Z" fill="url(#paint1_linear)"/>
</g>
<path fill-rule="evenodd" clip-rule="evenodd" d="M37.2529 41.8875C37.2435 41.8908 36.3556 42.1776 35.5853 42.1776C35.1601 42.1776 34.9883 42.0917 34.9338 42.0544C34.6644 41.8722 34.1635 41.5309 35.0205 39.8724L36.6253 36.765C37.5771 34.9197 37.7183 33.1353 37.0186 31.7388C36.4474 30.5967 35.3511 29.8128 33.9371 29.5321C33.4283 29.4309 32.9117 29.3811 32.3998 29.3811C29.432 29.3811 27.4341 31.064 27.3505 31.1358C27.0632 31.3821 26.9959 31.7903 27.1871 32.1113C27.3795 32.4323 27.7759 32.5791 28.1419 32.4573C28.1498 32.4544 29.0389 32.166 29.8095 32.166C30.2314 32.166 30.4016 32.2516 30.4544 32.2875C30.7259 32.4715 31.228 32.8172 30.3728 34.4724L28.7677 37.5816C27.8146 39.4284 27.6749 41.2128 28.3747 42.6076C28.9459 43.7499 30.0404 44.5338 31.4577 44.8143C31.9614 44.9128 32.4783 44.9658 32.9886 44.9658C35.9577 44.9658 37.9577 43.2826 38.041 43.2108C38.3283 42.966 38.3956 42.5561 38.2047 42.2351C38.0122 41.9155 37.6123 41.7722 37.2529 41.8875Z" fill="white"/>
<path fill-rule="evenodd" clip-rule="evenodd" d="M35.9066 20.0317C38.1224 20.0317 39.9187 21.7763 39.9187 23.9278C39.9187 26.0798 38.1224 27.8241 35.9066 27.8241C33.6907 27.8241 31.8944 26.0798 31.8944 23.9278C31.8944 21.7763 33.6907 20.0317 35.9066 20.0317Z" fill="white"/>
<defs>
<linearGradient id="paint0_linear" x1="8" y1="57.9976" x2="58.0001" y2="57.9976" gradientUnits="userSpaceOnUse">
<stop stop-color="#FFB833"/>
<stop offset="1" stop-color="#FF954D"/>
</linearGradient>
<linearGradient id="paint1_linear" x1="0" y1="65.9975" x2="65.9978" y2="65.9975" gradientUnits="userSpaceOnUse">
<stop stop-color="#648AF4"/>
<stop offset="1" stop-color="#8CAFFF"/>
</linearGradient>
</defs>
</svg>

<svg width="66" height="66" fill="none" xmlns="http://www.w3.org/2000/svg"><mask id="a" maskUnits="userSpaceOnUse" x="8" y="7" width="50" height="51"><path fill-rule="evenodd" clip-rule="evenodd" d="M8 32.998c0 13.807 11.193 25 25 25s25-11.193 25-25c0-13.808-11.193-25-25-25s-25 11.192-25 25z" fill="#fff"/></mask><g mask="url(#a)"><path fill-rule="evenodd" clip-rule="evenodd" d="M8 32.998c0 13.807 11.193 25 25 25s25-11.193 25-25c0-13.808-11.193-25-25-25s-25 11.192-25 25z" fill="url(#paint0_linear)"/></g><mask id="b" maskUnits="userSpaceOnUse" x="0" y="0" width="66" height="66"><path fill-rule="evenodd" clip-rule="evenodd" d="M0 32.999c0 18.155 14.738 32.934 32.879 32.998h.24C51.259 65.934 65.998 51.154 65.998 33 65.998 14.803 51.194 0 32.998 0 14.804 0 0 14.803 0 32.999zm3.955 0C3.955 16.984 16.985 3.955 33 3.955c16.015 0 29.044 13.029 29.044 29.044 0 16.014-13.03 29.044-29.044 29.044-16.015 0-29.044-13.03-29.044-29.044z" fill="#fff"/></mask><g mask="url(#b)"><path fill-rule="evenodd" clip-rule="evenodd" d="M0 32.999c0 18.155 14.738 32.934 32.879 32.998h.24C51.259 65.934 65.998 51.154 65.998 33 65.998 14.803 51.194 0 32.998 0 14.804 0 0 14.803 0 32.999zm3.955 0C3.955 16.984 16.985 3.955 33 3.955c16.015 0 29.044 13.029 29.044 29.044 0 16.014-13.03 29.044-29.044 29.044-16.015 0-29.044-13.03-29.044-29.044z" fill="url(#paint1_linear)"/></g><path fill-rule="evenodd" clip-rule="evenodd" d="M37.253 41.888c-.01.003-.897.29-1.668.29-.425 0-.597-.086-.651-.124-.27-.182-.77-.523.087-2.182l1.604-3.107c.952-1.845 1.093-3.63.394-5.026-.572-1.142-1.668-1.926-3.082-2.207a7.892 7.892 0 00-1.537-.15c-2.968 0-4.966 1.682-5.05 1.754a.764.764 0 00-.163.975.812.812 0 00.955.346c.008-.003.897-.291 1.668-.291.421 0 .592.086.644.122.272.184.774.53-.081 2.184l-1.605 3.11c-.953 1.846-1.093 3.63-.393 5.026.57 1.142 1.665 1.926 3.083 2.206.503.099 1.02.152 1.53.152 2.97 0 4.97-1.683 5.053-1.755a.765.765 0 00.164-.976.822.822 0 00-.952-.347zM35.907 20.032c2.215 0 4.012 1.744 4.012 3.896s-1.797 3.896-4.012 3.896c-2.216 0-4.013-1.744-4.013-3.896s1.797-3.896 4.013-3.896z" fill="#fff"/><defs><linearGradient id="paint0_linear" x1="8" y1="57.998" x2="58" y2="57.998" gradientUnits="userSpaceOnUse"><stop stop-color="#FFB833"/><stop offset="1" stop-color="#FF954D"/></linearGradient><linearGradient id="paint1_linear" x1="0" y1="65.998" x2="65.998" y2="65.998" gradientUnits="userSpaceOnUse"><stop stop-color="#648AF4"/><stop offset="1" stop-color="#8CAFFF"/></linearGradient></defs></svg>
